dist/svg/baby-line.svg

<svg xmlns="http://www.w3.org/2000/svg" viewBox="0 0 24 24"><path d="M11.6 3.264c-2.74.182-5.034 1.531-6.611 3.887-.374.558-1.069 2.003-1.069 2.222 0 .034-.094.115-.21.182a3.04 3.04 0 0 0-1.188 1.265c-.205.427-.261.678-.261 1.18s.056.753.261 1.18c.242.504.691.983 1.188 1.267.116.067.21.148.21.181 0 .104.317.852.583 1.374a8.9 8.9 0 0 0 3.103 3.45 8.14 8.14 0 0 0 8.788 0 8.9 8.9 0 0 0 3.103-3.45c.257-.505.583-1.276.583-1.379 0-.03.095-.109.21-.176a3 3 0 0 0 1.338-1.627c.091-.277.105-.388.105-.82s-.014-.543-.105-.82a3 3 0 0 0-1.338-1.625c-.115-.067-.21-.146-.21-.177 0-.104-.325-.873-.583-1.38-.876-1.724-2.282-3.118-3.957-3.922a7.9 7.9 0 0 0-2.4-.736c-.439-.062-1.195-.099-1.54-.076m.928 1.609c.239.118.481.36.599.599.088.178.093.231.093 1.028 0 .799-.005.849-.093 1.029-.376.764-1.387.952-1.978.37-.239-.236-.351-.476-.392-.84-.035-.314-.075-.421-.212-.573-.136-.15-.308-.219-.545-.219-.521 0-.802.375-.741.991.063.638.337 1.21.805 1.678.335.335.676.546 1.116.692.277.091.387.105.82.105s.543-.014.82-.105c.44-.146.781-.357 1.116-.692.336-.336.547-.677.691-1.116.096-.291.107-.393.124-1.122.01-.473 0-.914-.025-1.078-.024-.152-.036-.284-.027-.293.029-.029.826.431 1.157.667 1.349.962 2.27 2.244 2.838 3.949.171.513.247.604.697.837.691.358.983.956.787 1.613-.088.298-.456.683-.811.849-.413.193-.501.301-.673.815-.473 1.422-1.157 2.498-2.165 3.409Q14.564 19.24 12 19.24c-1.711 0-3.218-.591-4.529-1.775-1.01-.912-1.691-1.983-2.165-3.408-.172-.514-.26-.622-.673-.815-.355-.166-.723-.551-.811-.849-.198-.665.095-1.254.808-1.626.433-.225.503-.312.686-.849.29-.851.535-1.363.955-1.996 1.076-1.62 2.805-2.781 4.556-3.058l.493-.079c.055-.01.307-.014.56-.011.392.005.488.02.648.099m-3.723 5.406a.77.77 0 0 0-.544.597c-.078.462.303.883.801.884.175 0 .454-.156.596-.334.109-.137.122-.182.122-.426 0-.245-.012-.288-.124-.426a1.1 1.1 0 0 0-.24-.221 1 1 0 0 0-.611-.074m6 0a.77.77 0 0 0-.544.597c-.078.462.303.883.801.884.175 0 .454-.156.596-.334.109-.137.122-.182.122-.426 0-.245-.012-.288-.124-.426a1.1 1.1 0 0 0-.24-.221 1 1 0 0 0-.611-.074m-4.994 3.999a.75.75 0 0 0-.533.914c.091.337.347.512 1.123.768a5.17 5.17 0 0 0 3.198 0c.776-.256 1.032-.431 1.123-.768.112-.414-.129-.802-.566-.912-.167-.042-.214-.036-.48.061-.653.237-.747.266-1.03.322-.692.135-1.364.053-2.146-.263-.331-.134-.513-.166-.689-.122" fill-rule="evenodd"/></svg>

<svg fill="none" xmlns="http://www.w3.org/2000/svg" viewBox="0 0 24 24"><path d="M11.600 3.264 C 8.860 3.446,6.566 4.795,4.989 7.151 C 4.615 7.709,3.920 9.154,3.920 9.373 C 3.920 9.407,3.826 9.488,3.710 9.555 C 3.207 9.844,2.764 10.316,2.522 10.820 C 2.317 11.247,2.261 11.498,2.261 12.000 C 2.261 12.502,2.317 12.753,2.522 13.180 C 2.764 13.684,3.213 14.163,3.710 14.447 C 3.826 14.514,3.920 14.595,3.920 14.628 C 3.920 14.732,4.237 15.480,4.503 16.002 C 5.219 17.412,6.297 18.610,7.606 19.452 C 10.273 21.169,13.727 21.169,16.394 19.452 C 17.703 18.610,18.781 17.412,19.497 16.002 C 19.754 15.497,20.080 14.726,20.080 14.623 C 20.080 14.593,20.175 14.514,20.290 14.447 C 20.910 14.093,21.409 13.486,21.628 12.820 C 21.719 12.543,21.733 12.432,21.733 12.000 C 21.733 11.568,21.719 11.457,21.628 11.180 C 21.409 10.513,20.916 9.915,20.290 9.555 C 20.175 9.488,20.080 9.409,20.080 9.378 C 20.080 9.274,19.755 8.505,19.497 7.998 C 18.621 6.274,17.215 4.880,15.540 4.076 C 14.735 3.689,13.979 3.457,13.140 3.340 C 12.701 3.278,11.945 3.241,11.600 3.264 M12.528 4.873 C 12.767 4.991,13.009 5.233,13.127 5.472 C 13.215 5.650,13.220 5.703,13.220 6.500 C 13.220 7.299,13.215 7.349,13.127 7.529 C 12.751 8.293,11.740 8.481,11.149 7.899 C 10.910 7.663,10.798 7.423,10.757 7.059 C 10.722 6.745,10.682 6.638,10.545 6.486 C 10.409 6.336,10.237 6.267,10.000 6.267 C 9.479 6.267,9.198 6.642,9.259 7.258 C 9.322 7.896,9.596 8.468,10.064 8.936 C 10.399 9.271,10.740 9.482,11.180 9.628 C 11.457 9.719,11.567 9.733,12.000 9.733 C 12.433 9.733,12.543 9.719,12.820 9.628 C 13.260 9.482,13.601 9.271,13.936 8.936 C 14.272 8.600,14.483 8.259,14.627 7.820 C 14.723 7.529,14.734 7.427,14.751 6.698 C 14.761 6.225,14.751 5.784,14.726 5.620 C 14.702 5.468,14.690 5.336,14.699 5.327 C 14.728 5.298,15.525 5.758,15.856 5.994 C 17.205 6.956,18.126 8.238,18.694 9.943 C 18.865 10.456,18.941 10.547,19.391 10.780 C 20.082 11.138,20.374 11.736,20.178 12.393 C 20.090 12.691,19.722 13.076,19.367 13.242 C 18.954 13.435,18.866 13.543,18.694 14.057 C 18.221 15.479,17.537 16.555,16.529 17.466 C 15.218 18.649,13.710 19.240,12.000 19.240 C 10.289 19.240,8.782 18.649,7.471 17.465 C 6.461 16.553,5.780 15.482,5.306 14.057 C 5.134 13.543,5.046 13.435,4.633 13.242 C 4.278 13.076,3.910 12.691,3.822 12.393 C 3.624 11.728,3.917 11.139,4.630 10.767 C 5.063 10.542,5.133 10.455,5.316 9.918 C 5.606 9.067,5.851 8.555,6.271 7.922 C 7.347 6.302,9.076 5.141,10.827 4.864 C 11.043 4.829,11.265 4.794,11.320 4.785 C 11.375 4.775,11.627 4.771,11.880 4.774 C 12.272 4.779,12.368 4.794,12.528 4.873 M8.805 10.279 C 8.537 10.345,8.308 10.596,8.261 10.876 C 8.183 11.338,8.564 11.759,9.062 11.760 C 9.237 11.760,9.516 11.604,9.658 11.426 C 9.767 11.289,9.780 11.244,9.780 11.000 C 9.780 10.755,9.768 10.712,9.656 10.574 C 9.587 10.489,9.479 10.390,9.416 10.353 C 9.271 10.270,8.983 10.235,8.805 10.279 M14.805 10.279 C 14.537 10.345,14.308 10.596,14.261 10.876 C 14.183 11.338,14.564 11.759,15.062 11.760 C 15.237 11.760,15.516 11.604,15.658 11.426 C 15.767 11.289,15.780 11.244,15.780 11.000 C 15.780 10.755,15.768 10.712,15.656 10.574 C 15.587 10.489,15.479 10.390,15.416 10.353 C 15.271 10.270,14.983 10.235,14.805 10.279 M9.811 14.278 C 9.419 14.374,9.172 14.799,9.278 15.192 C 9.369 15.529,9.625 15.704,10.401 15.960 C 11.428 16.298,12.572 16.298,13.599 15.960 C 14.375 15.704,14.631 15.529,14.722 15.192 C 14.834 14.778,14.593 14.390,14.156 14.280 C 13.989 14.238,13.942 14.244,13.676 14.341 C 13.023 14.578,12.929 14.607,12.646 14.663 C 11.954 14.798,11.282 14.716,10.500 14.400 C 10.169 14.266,9.987 14.234,9.811 14.278 " stroke="none" fill-rule="evenodd" fill="currentColor"/></svg>
